X:1
T:Title
%%score { ( 1 3 4 ) | ( 2 5 6 ) }
L:1/8
Q:1/4=100
M:4/4
K:Ab
V:1 treble nm="Grand Piano"
V:3 treble 
V:4 treble 
V:2 bass 
V:5 bass 
V:6 bass 
V:1
 [Ec][Ec][Ec][Ec] [Ec][DB][CA][Ec] | [FA]2 [DF]2 [CE]3 E | dddd dcBA | %3
w: J.~Owen~Long * * * * * * *|||
 z4 B2[K:bass][K:treble] .A2 | [Ec][Ec][Ec][Ec] [Ec][DB][CA][Ec] | [FA]2 [DF]2 [CE]2 E2 | %6
w: |||
 A2 c2 cBAc |[M:7/8] B- B3 [A,CA]3 |[M:1/4] GA |[M:4/4] B6 z2 | A6[K:bass][K:treble] z2 | %11
w: |||||
 [Ec][Ec][Ec][Ec] [=Dc][DB][DA][Dc] | B6 cd | eeAB c2 cc | [Fd][Fd][FA][=EB] [_Ec]2 [EG]F | %15
w: ||||
 EEAc cBFG | [CA]6 z2 |] %17
w: ||
V:2
 [A,,A,][A,,A,][A,,A,][A,,A,] [A,,A,][A,,E,][A,,E,][A,,A,] | [D,A,]2 [D,A,]2 [A,,A,]3 [E,G,] | %2
 [E,B,E][E,B,E][E,B,E][E,B,E] [E,B,E][E,A,E][E,G,E][E,CE] | %3
 [E,A,E]2 [E,A,E]2 .[E,G,E]2 [C,A,][B,,G,] | %4
 [A,,A,][A,,A,][A,,A,][A,,A,] [A,,A,][A,,E,][A,,E,][A,,A,] | [D,A,]2 [D,A,]2 [A,,A,]2 [C,A,]2 | %6
 [E,A,C]2 [E,A,E]2 [E,A,E][E,G,D][E,A,C][E,A,E] |[M:7/8] [E,G,D]- [E,G,D]3 A,,3 |[M:1/4] B,C | %9
[M:4/4] D6[K:treble] z2 | C6[K:bass] z2 | %11
 [A,,A,][A,,A,][A,,A,][A,,A,] [B,,F,][B,,F,][B,,F,][B,,F,] | [E,G,E]6[K:treble] [A,E][A,B,E] | %13
 [A,CE][A,CE][A,CE][A,DE] [A,EA]2 [A,_G][A,G] | [D,A,][D,A,][D,A,][D,A,] [A,,A,]2 [C,A,][D,A,D] | %15
 [E,A,C][E,A,C][E,A,C][E,A,E] [E,A,E][E,G,D][E,B,D][E,B,D] | [A,,A,]6 z2 |] %17
V:3
 x8 | x8 | x8 | c2 c2 z[K:bass] D,[K:treble]E-[EB] | x8 | x8 | x8 |[M:7/8] x7 |[M:1/4] x2 | %9
[M:4/4] z2 G,G, z dFG | z2[K:bass] A,A, F,E,[K:treble][CA][DB] | x8 | x8 | x8 | x8 | x8 | x8 |] %17
V:4
 x8 | x8 | x8 | x5[K:bass] x[K:treble] x2 | x8 | x8 | x8 |[M:7/8] x7 |[M:1/4] x2 | %9
[M:4/4] z4 G,2 z2 | x2[K:bass] x4[K:treble] x2 | x8 | x8 | x8 | x8 | x8 | x8 |] %17
V:5
 x8 | x8 | x8 | x8 | x8 | x8 | x8 |[M:7/8] x7 |[M:1/4] x2 |[M:4/4] z2 E,E, z[K:treble] FDD | %10
 z2[K:bass] A,,A,, A,,A,,[A,,E,][A,,E,] | x8 | x6[K:treble] x2 | x8 | x8 | x8 | x8 |] %17
V:6
 x8 | x8 | x8 | x8 | x8 | x8 | x8 |[M:7/8] x7 |[M:1/4] x2 |[M:4/4] z4 E,2[K:treble] z2 | %10
 x2[K:bass] x6 | x8 | x6[K:treble] x2 | x8 | x8 | x8 | x8 |] %17

